svgs/light/money-bills-simple.svg

<svg xmlns="http://www.w3.org/2000/svg" viewBox="0 0 640 512"><!--! Font Awesome Pro 6.6.0 by @fontawesome - https://fontawesome.com License - https://fontawesome.com/license (Commercial License) Copyright 2024 Fonticons, Inc. --><path d="M576 64c17.7 0 32 14.3 32 32l0 224c0 17.7-14.3 32-32 32l-416 0c-17.7 0-32-14.3-32-32l0-224c0-17.7 14.3-32 32-32l416 0zM160 32c-35.3 0-64 28.7-64 64l0 224c0 35.3 28.7 64 64 64l416 0c35.3 0 64-28.7 64-64l0-224c0-35.3-28.7-64-64-64L160 32zM368 272a64 64 0 1 1 0-128 64 64 0 1 1 0 128zm-96-64a96 96 0 1 0 192 0 96 96 0 1 0 -192 0zM32 112c0-8.8-7.2-16-16-16s-16 7.2-16 16L0 368c0 61.9 50.1 112 112 112l416 0c8.8 0 16-7.2 16-16s-7.2-16-16-16l-416 0c-44.2 0-80-35.8-80-80l0-256z"/></svg>

<svg xmlns="http://www.w3.org/2000/svg" viewBox="0 0 640 512"><!--! Font Awesome Pro 6.4.2 by @fontawesome - https://fontawesome.com License - https://fontawesome.com/license (Commercial License) Copyright 2023 Fonticons, Inc. --><path d="M576 64c17.7 0 32 14.3 32 32V320c0 17.7-14.3 32-32 32H160c-17.7 0-32-14.3-32-32V96c0-17.7 14.3-32 32-32H576zM160 32c-35.3 0-64 28.7-64 64V320c0 35.3 28.7 64 64 64H576c35.3 0 64-28.7 64-64V96c0-35.3-28.7-64-64-64H160zM368 272a64 64 0 1 1 0-128 64 64 0 1 1 0 128zm-96-64a96 96 0 1 0 192 0 96 96 0 1 0 -192 0zM32 112c0-8.8-7.2-16-16-16s-16 7.2-16 16V368c0 61.9 50.1 112 112 112H528c8.8 0 16-7.2 16-16s-7.2-16-16-16H112c-44.2 0-80-35.8-80-80V112z"/></svg>
